!!!SOCIAL_FUNCTION:	songs of social dances
!!!PDT:	1958
!!!OTL: No_17_Social_Dance_Song_(e).krn
!!!REG: Northern California
!!!LANG: Non-Tone
!!!LING_GROUP: Penutian
**kern
*staff1
=1-
*clefF4
*k[f#c#]
*M2/4
8.B\L
16d\Jk
16d\LK
8F#\
16A\Jk
=2
8.A\L
16F#\Jk
8F#\
8r
=3!|:
8.B\L
16d\Jk
16d\LK
8F#\
16A\Jk
=4
8.A\L
16F#\Jk
8F#\
8r
=5
8.e\L
16d\Jk
16B\LK
8A\
16d\Jk
=6
8B\L
16B\L
16A\JJ
8A\L
16B\L
16A\JJ
=7
8A\L
16B\L
16A\JJ
8F#\
8r
=8||
8.B\L
16e\Jk
16d\LK
8F#\
16A\Jk
=9
8.A\L
16F#\Jk
8F#\
8r
==:|!
*-
